X:158
T:Robbie's Cottage* (ss)
B:NFID.109b ("untitled strathspey")
158rob_c
S:SD
N:Note extra measure in second ending of B part.
L:1/8
M:C
R:hornpipe
Q:270
K:D
DEFG A<FD2|B,2ED CA,A,2|DEFG A<FD2|1 E2E2D2D2:|2 E2E<A D2DB||
A<FFd B<GGB|c<BAa f<ddB|A<FFd B<GGB|
[1 (3cBA (3cde f<ddB:|[2 (3cBA (3cde (3fed (3cBA|\
(3EFG (3EFG F<D HD2|]

%%%

